!!!OTL: Schloss in Oesterreich In Oestreich stand ein hohes Schloss,
!!!ARE: Europa, Mitteleuropa, Schweiz, Rheinfelden, Moehlin
!!!YOR: 1, S. 253
!!    1912 aufgezeichnet
!!!SCT: Q0024B
!!!YEM: Copyright 1995, estate of Helmut Schaffrath.
**kern
*ICvox
*Ivox
*M3/4
*k[]
*C:
{8g
=1
8g
8cc
4.e
8e
=2
8e
8g
4.d}
{8g
=3
8g
8g
4.a
8f
=4
4f
4e
8r}
{8g
=5
8g
8b
4.dd
8f
=6
8e
8g
4.cc}
{8ee
=7
16dd
16cc
16b
16a
4.g
8f
=8
4f
4e
8r}
==
!!!AGN: Ballade, Gefangenschaft, Hinrichtung, Tod, Vergeltung
!! Kleinere Melodievariante aus anderer Quelle abgedruckt.
!!!ONB: ESAC (Essen Associative Code) Database: BALLADE
!!!AMT: simple triple
!!!AIN: vox
!!!EED: Helmut Schaffrath
!!!EEV: 1.0
*-
